icons/2_Variations/Handshake bg.var.svg

<svg width="1024" height="1024" viewBox="0 0 1024 1024" fill="none" xmlns="http://www.w3.org/2000/svg">
<g clip-path="url(#clip0_3_101)">
<path d="M512 1024C794.77 1024 1024 794.77 1024 512C1024 229.23 794.77 0 512 0C229.23 0 0 229.23 0 512C0 794.77 229.23 1024 512 1024Z" fill="#ABABFF"/>
<path d="M690.09 423L658.27 366.48H719.91C720.806 366.525 721.677 366.781 722.454 367.228C723.231 367.674 723.891 368.299 724.38 369.05L736.38 388.83C743.58 400.7 752.18 414.88 757.11 422.98L690.09 423ZM576.09 765.32C574.59 768 572.65 768 572 768H509L606.94 592.16C607.734 590.728 608.141 589.114 608.121 587.477C608.102 585.84 607.656 584.237 606.829 582.824C606.001 581.411 604.82 580.238 603.402 579.421C601.984 578.603 600.377 578.168 598.74 578.16L431.81 578.38L398.6 520.87H641.86C642 520.87 642.12 520.87 642.26 520.82C643.216 520.781 644.158 520.585 645.05 520.24L645.66 519.98C647.547 519.174 649.115 517.768 650.12 515.98L690.2 441.89H756.36L576.09 765.32ZM492.68 758.64L484.77 745.64C474.64 728.93 461.67 707.53 460.2 705.18C459.884 704.449 459.747 703.652 459.801 702.857C459.855 702.062 460.098 701.292 460.51 700.61C462.86 696.39 507.18 616.55 517.98 597.09L582.7 597L492.68 758.64ZM382.3 648.64L350.13 591.48L382.56 530.7L415.07 587C405 606 389.18 635.69 382.29 648.6L382.3 648.64ZM339.12 657.54H304C303.115 657.484 302.254 657.222 301.487 656.776C300.72 656.33 300.067 655.712 299.58 654.97L289.11 637.71C281.65 625.41 272.11 609.71 266.86 601.03H333.86L365.67 657.55L339.12 657.54ZM447.92 258.68C449.41 256 451.34 256 451.92 256H515.23L417.08 431.85C417 432 416.95 432.15 416.88 432.31C416.81 432.47 416.61 432.9 416.49 433.21C416.37 433.52 416.3 433.8 416.22 434.1C416.14 434.4 416.08 434.67 416.04 434.95C415.987 435.281 415.954 435.615 415.94 435.95V436.77C415.952 437.105 415.985 437.439 416.04 437.77C416.073 438.056 416.123 438.34 416.19 438.62C416.26 438.92 416.36 439.2 416.46 439.5C416.56 439.8 416.66 440.08 416.79 440.35C416.92 440.62 417.06 440.88 417.22 441.14C417.38 441.4 417.52 441.65 417.7 441.9C417.88 442.147 418.074 442.384 418.28 442.61C418.48 442.83 418.68 443.06 418.9 443.27C419.12 443.48 419.35 443.64 419.58 443.83C419.838 444.04 420.109 444.233 420.39 444.41C420.5 444.47 420.58 444.56 420.69 444.62C420.8 444.68 420.92 444.7 421.04 444.76C421.531 445.011 422.043 445.219 422.57 445.38C422.76 445.43 422.94 445.51 423.14 445.55C423.834 445.721 424.546 445.808 425.26 445.81H429.52L592.25 445.59C596.55 453.08 604.6 467.16 611.45 479.15C616.71 488.37 621.044 495.97 624.45 501.95H381.99C380.316 501.968 378.678 502.435 377.246 503.302C375.814 504.169 374.642 505.405 373.85 506.88L333.76 582.02H267.65C296.51 530.35 446 262.13 447.92 258.68ZM531.47 265.57L537.35 275.25C547.68 292.25 562.26 316.33 563.81 318.83C564.13 319.561 564.268 320.358 564.212 321.154C564.156 321.95 563.909 322.721 563.49 323.4L506 426.93L441.3 427.01L531.47 265.57ZM641.69 375.33L673.88 432.52L641.06 493.18C637.15 486.35 632.29 477.84 627.73 469.86C618.73 454.08 612.15 442.58 608.45 436.16C615.45 423.35 633.94 389.46 641.69 375.33Z" fill="white"/>
</g>
<defs>
<clipPath id="clip0_3_101">
<rect width="1024" height="1024" fill="white"/>
</clipPath>
</defs>
</svg>

<svg xmlns="http://www.w3.org/2000/svg" viewBox="0 0 1024 1024">
   <circle cx="512" cy="512" r="512" style="fill:#693afa"/>
   <path d="m690.09 423-31.82-56.52h61.64a5.67 5.67 0 0 1 4.47 2.57l12 19.78c7.2 11.87 15.8 26.05 20.73 34.15Zm-114 342.32c-1.5 2.68-3.44 2.68-4.09 2.68h-63l97.94-175.84a9.43 9.43 0 0 0-8.2-14l-166.93.22-33.21-57.51h243.26c.14 0 .26 0 .4-.05a8.73 8.73 0 0 0 2.79-.58l.61-.26a9.31 9.31 0 0 0 4.46-4l40.08-74.09h66.16Zm-83.41-6.68-7.91-13c-10.13-16.71-23.1-38.11-24.57-40.46a5 5 0 0 1 .31-4.57c2.35-4.22 46.67-84.06 57.47-103.52l64.72-.09Zm-110.38-110-32.17-57.16 32.43-60.78 32.51 56.3c-10.07 19-25.89 48.69-32.78 61.6Zm-43.18 8.9H304a5.72 5.72 0 0 1-4.42-2.57l-10.47-17.26c-7.46-12.3-17-28-22.25-36.68h67l31.81 56.52Zm108.8-398.86c1.49-2.68 3.42-2.68 4-2.68h63.31l-98.15 175.85c-.08.15-.13.3-.2.46s-.27.59-.39.9-.19.59-.27.89-.14.57-.18.85a8.35 8.35 0 0 0-.1 1v.82a7.63 7.63 0 0 0 .1 1 6.94 6.94 0 0 0 .15.85c.07.3.17.58.27.88s.2.58.33.85.27.53.43.79.3.51.48.76a8.31 8.31 0 0 0 .58.71c.2.22.4.45.62.66s.45.37.68.56a8.17 8.17 0 0 0 .81.58c.11.06.19.15.3.21s.23.08.35.14a9.4 9.4 0 0 0 1.53.62c.19.05.37.13.57.17a9 9 0 0 0 2.12.26h4.26l162.73-.22c4.3 7.49 12.35 21.57 19.2 33.56q7.89 13.83 13 22.8H381.99a9.35 9.35 0 0 0-8.14 4.93l-40.09 75.14h-66.11C296.51 530.35 446 262.13 447.92 258.68Zm83.55 6.89 5.88 9.68c10.33 17 24.91 41.08 26.46 43.58a4.94 4.94 0 0 1-.32 4.57L506 426.93l-64.7.08Zm110.22 109.76 32.19 57.19-32.82 60.66c-3.91-6.83-8.77-15.34-13.33-23.32-9-15.78-15.58-27.28-19.28-33.7 7-12.81 25.49-46.7 33.24-60.83Z" style="fill:#fff"/>
</svg>
